X: 171
T: SINGLE JIG: Scully Casey's
C: C: Trad.; S: Bobby Casey & Tommy Keane
C: Set Leaders: Alexey, Anton
Z: Anton Zille ed.; Richie Davis at The Session
N: https://thesession.org/members/26966/sets/99621
R: Single Jig
M: 12/8
L: 1/8
Q: 3/8=116
K: Dmaj
A|dcd AGE =F2G A2B|=cBc A2c cBc ABc|
dcd AGE =F2G A2g|fed edc d2e f2e|
dcd AGE =F2G A2B|=cBc A2c cBc ABc|
dcd AGE =F2G A2g|fed edc d3 d2A||
d2e ~f2g ~a3 afd|B=cd e2f gaf ge^c|
d2e f2g ~a3 agf|ecA ABc d3 d2A|
d2e ~f2g ~a3 afd|B=cd e2f ~g3 ge/f/g|
agf gfe fed edc|dcA ABc d2e f2e||

